!!!COM: Corelli, Arcangelo
!!!OTL: Sonata da camera
!!!OPS: 4
!!!ONM: 9
!!!OMV: 3
!!!OMD: Grave
**kern	**fb	**kern	**kern	**kern
*part4	*part4	*part3	*part2	*part1
*staff4	*	*staff3	*staff2	*staff1
*clefF4	*	*clefF4	*clefG2	*clefG2
*k[b-]	*	*k[b-]	*k[b-]	*k[b-]
*d:	*	*d:	*d:	*d:
*M4/4	*	*M4/4	*M4/4	*M4/4
*met(c)	*	*met(c)	*met(c)	*met(c)
=1	=1	=1	=1	=1
4G	.	4G	2.dd	4b-
4F	6	4F	.	4dd
2E-X	7	2E-X	.	4g
.	6	.	4cc	[4gg
=	=	=	=	=
4D	6 4	4D	4b-	4gg]
2d	5	2d	4a	4ff
.	4 -2	.	4.g	4.ee-X
[4c	-	[4c	.	.
.	.	.	8g	8ee-
=	=	=	=	=
4c]	#4| 2	4c]	4f#X	4.dd
4B-	6	4B-	2g	.
.	.	.	.	8g
4A	7	4A	.	4.cc
4D	7 #	4D	4f#	.
.	.	.	.	8dd
=	=	=	=	=
4G	.	4G	4b-	4ee-X
4F	6	4F	4a	2dd
2E-X	7	2E-X	2g	.
.	6	.	.	4cc
=	=	=	=	=
4.D	#	4.D	2f#X	4dd
.	.	.	.	2aa
8C	4 2	8C	.	.
2BB-	7	2BB-	4r	.
.	6	.	[4dd	4gg
=	=	=	=	=
4AA	6 4	4AA	4dd]	4ff
2A	5	2A	4cc	4ee
.	4 2	.	2b-	2dd
[4G	5	[4G	.	.
=	=	=	=	=
4G]	#4| 2	4G]	2a	4cc#X
2F	6	2F	.	4dd
.	#4| 2	.	4g	4bn
4E-X	6	4E-X	4gg	[4ccn
=	=	=	=	=
4D	7	4D	4ff	4cc]
4G	n	4G	2dd	4bn
4C	9 -	4C	.	[2ee-X
4c	8	4c	8ccL	.
.	.	.	8b-J	.
=	=	=	=	=
2F#X	-7	2F#X	4a	4ee-]
.	6	.	2aa	8ddL
.	.	.	.	8ccJ
4G	9	4G	.	8b-XiL
.	.	.	.	8ccJ
4BBn	6	4BBn	8ggL	[4dd
.	5	.	8ffJ	.
=	=	=	=	=
4C	9 -	4C	2ee-X	4dd]
2c	8	2c	.	4cc
.	#4| 2	.	4.dd	4f#X
8B-XiL	6	8B-XiL	.	[4g
8cJ	.	8cJ	8ee-	.
=	=	=	=	=
4d	6 4	4d	4b-	4g]
4D	5 #	4D	4a	4f#X
4G	.	4G	4g	4g
4F	6	4F	4a	[4dd
=	=	=	=	=
2E-X	7	2E-X	2g	4dd]
.	6	.	.	4cc
2D	#	2D	2f#X	2dd
==	==	==	==	==
*-	*-	*-	*-	*-
!!!system-decoration: [{s1,s2},s3,s4]
!!!YEM: CC BY-NC-SA 4.0; CCARH; DCML
!!!RDF**kern: i = editorial accidental